X: 43095
T: Winding Road, The
R: jig
M: 6/8
K: Dmajor
Aff Agg|Aff g2 b|afd cde|fgf ecB|
Aff Agg|Aff g2 b|afd cde|fdc d:|
d2 d Bcd|cBA GEF|D2 d dcd|ecA GFE|
Aff Agg|Aff g2 b|afd cde|fdc d:|
A,FF A,GG|A,FF G2 B|AFD CDE|FGF ECB,|
A,FF A,GG|A,FF G2 B|AFD CDE|FDC D:|

